X:401
T:Egyptian Festival,The. RH.401
T:Machynlleth,aka. RH.401
R:march
S:Rev.R.Harrison’s MS,c1815,Cumbria
N:”Untitled Polka” in “The Sussex Tunebook”. SW.
O:England
A:Temple Sowerby,Cumbria
Z:vmp.Simon Wilson. Review PJH, 2008.
M:2/4
L:1/16
Q:1/4=110
K:D
abag fgfe|d2d2 e2f2|(g2e2) e2e2|g2e2 e2e2|!
(abag) fgfe|d3de2f2|g2e2 d2c2|d4 D4:|!
|:cdef gabc’|d’aba gfed|cdef gabc’|d’2a2 f2d2|!
cdef gabc’|d’c’ba gfed|c2d2 e2f2|d4 d4|]

